projects/jtProject/images/icons/SVG-raw/closer.svg

<svg width="24" height="24" viewBox="0 0 24 24" version="1.1" xmlns="http://www.w3.org/2000/svg" xmlns:xlink="http://www.w3.org/1999/xlink">
<g id="Canvas" transform="translate(-1729 -5605)">
<g id="iconCloser">
<g id="Ellipse">
<use xlink:href="#path0_fill" transform="translate(1729 5605)" fill="#FFFFFF"/>
</g>
<g id="Vector">
<use xlink:href="#path1_stroke" transform="translate(1738 5614)" fill="#E0E0E0"/>
</g>
</g>
</g>
<defs>
<path id="path0_fill" d="M 24 12C 24 18.6274 18.6274 24 12 24C 5.37258 24 0 18.6274 0 12C 0 5.37258 5.37258 0 12 0C 18.6274 0 24 5.37258 24 12Z"/>
<path id="path1_stroke" d="M 0.707107 -0.707107C 0.316583 -1.09763 -0.316583 -1.09763 -0.707107 -0.707107C -1.09763 -0.316583 -1.09763 0.316583 -0.707107 0.707107L 0.707107 -0.707107ZM 5.29289 6.70711C 5.68342 7.09763 6.31658 7.09763 6.70711 6.70711C 7.09763 6.31658 7.09763 5.68342 6.70711 5.29289L 5.29289 6.70711ZM -0.707107 5.29289C -1.09763 5.68342 -1.09763 6.31658 -0.707107 6.70711C -0.316583 7.09763 0.316583 7.09763 0.707107 6.70711L -0.707107 5.29289ZM 6.70711 0.707107C 7.09763 0.316583 7.09763 -0.316583 6.70711 -0.707107C 6.31658 -1.09763 5.68342 -1.09763 5.29289 -0.707107L 6.70711 0.707107ZM -0.707107 0.707107L 5.29289 6.70711L 6.70711 5.29289L 0.707107 -0.707107L -0.707107 0.707107ZM 0.707107 6.70711L 6.70711 0.707107L 5.29289 -0.707107L -0.707107 5.29289L 0.707107 6.70711Z"/>
</defs>
</svg>

<svg width="24" height="24" xmlns="http://www.w3.org/2000/svg" xmlns:xlink="http://www.w3.org/1999/xlink"><use xlink:href="#path0_fillCloser" class="t-svgBg" fill="#FFF"/><use xlink:href="#path1_strokeCloser" transform="translate(9 9)" class="t-svgFigure" fill="#E0E0E0"/><defs><path id="path0_fillCloser" d="M24 12c0 6.627-5.373 12-12 12S0 18.627 0 12 5.373 0 12 0s12 5.373 12 12z"/><path id="path1_strokeCloser" d="M.707-.707A1 1 0 0 0-.707.707L.707-.707zm4.586 7.414a1 1 0 0 0 1.414-1.414L5.293 6.707zm-6-1.414A1 1 0 0 0 .707 6.707L-.707 5.293zM6.707.707A1 1 0 0 0 5.293-.707L6.707.707zm-7.414 0l6 6 1.414-1.414-6-6L-.707.707zm1.414 6l6-6L5.293-.707l-6 6L.707 6.707z"/></defs></svg>
